X:1
T:Recuerdos da la Alhabra
T:Recuerdos de la Alhambra
T:Francisco Tárrega
C:Francisco Tárrega
%%score ( 1 2 3 )
L:1/8
Q:1/4=78
M:3/4
K:C
V:1 treble-8 nm="Klassieke gitaar" snm="Git."
V:2 treble-8 
V:3 treble-8 
V:1
|:"^\n""^Andante"!>(! z/4 e/4!mp!e/4e/4 z/4 e/4e/4e/4 z/4 e/4e/4e/4 z/4 e/4e/4e/4 z/4 d/4d/4d/4 z/4 d/4d/4d/4!>)! | %1
!<(! z/4 !1!c/4c/4c/4 z/4 c/4c/4c/4 z/4 c/4c/4c/4 z/4 c/4c/4c/4 z/4 !2!d/4d/4d/4 z/4 d/4d/4d/4!<)! | %2
!>(! z/4 e/4!mp!e/4e/4 z/4 e/4e/4e/4 z/4 e/4e/4e/4 z/4 e/4e/4e/4 z/4 e/4e/4e/4 z/4 e/4e/4e/4!>)! | %3
!<(! z/4 e/4e/4e/4 z/4 e/4e/4e/4 z/4 e/4e/4e/4 z/4 e/4e/4e/4 z/4 !2!f/4f/4f/4 z/4 f/4f/4f/4!<)! | %4
 z/4 !2!g/4!mp!g/4g/4 z/4 g/4g/4g/4 z/4 g/4g/4g/4 z/4 g/4g/4g/4 z/4 !2!f/4f/4f/4 z/4 f/4f/4f/4 | %5
 z/4 e/4e/4e/4 z/4 e/4e/4e/4 z/4 !4!e/4e/4e/4 z/4 e/4e/4e/4 z/4 !2!f/4f/4f/4 z/4 f/4f/4f/4 | %6
 z/4 !2!g/4g/4g/4 z/4 g/4g/4g/4 z/4 g/4g/4g/4 z/4 g/4g/4g/4 z/4 !2!g/4g/4g/4 z/4 g/4g/4g/4 | %7
 z/4 !2!g/4g/4g/4 z/4 g/4g/4g/4 z/4 g/4g/4g/4 z/4 g/4g/4g/4 z/4 g/4g/4g/4 z/4 g/4g/4g/4 | %8
"^VIII" z/4 c'/4c'/4c'/4 z/4 c'/4c'/4c'/4 z/4 c'/4c'/4c'/4 z/4 c'/4c'/4c'/4 z/4 b/4b/4b/4 z/4 b/4b/4b/4 | %9
"^VIII" z/4 a/4a/4a/4 z/4 a/4a/4a/4 z/4 a/4a/4a/4 z/4 a/4a/4a/4 z/4 b/4b/4b/4 z/4 b/4b/4b/4 | %10
"^IX" z/4 !2!a/4a/4a/4 z/4 a/4(3(a/4b/4a/4) z/4 ^g/4g/4g/4 z/4 g/4g/4g/4 z/4 g/4g/4g/4 z/4 g/4g/4g/4 | %11
 z/4 ^g/4g/4g/4 z/4 g/4g/4g/4 z/4 g/4g/4g/4 z/4 g/4g/4g/4 z/4 g/4g/4g/4 z/4 g/4g/4g/4 | %12
 z/4 _b/4b/4b/4 z/4 b/4b/4b/4 z/4 b/4b/4b/4 z/4 b/4b/4b/4 z/4 a/4a/4a/4 z/4 a/4a/4a/4 | %13
 z/4 g/4g/4g/4 z/4 g/4g/4g/4 z/4 g/4g/4g/4 z/4 g/4g/4g/4 z/4 a/4a/4a/4 z/4 a/4a/4a/4 | %14
 z/4 !2!g/4g/4g/4 z/4 g/4(3(g/4a/4g/4) z/4 f/4f/4f/4 z/4 f/4f/4f/4 z/4 f/4f/4f/4 z/4 f/4f/4f/4 | %15
 z/4 f/4f/4f/4 z/4 f/4f/4f/4 z/4 f/4f/4f/4 z/4 f/4f/4f/4 z/4 f/4f/4f/4 z/4 f/4f/4f/4 | %16
 z/4 !0!e/4e/4e/4 z/4 e/4e/4e/4 z/4 e/4e/4e/4 z/4 e/4e/4e/4 z/4 !3!d/4d/4d/4 z/4 d/4d/4d/4 | %17
"^I" z/4"Fm" c/4c/4c/4 z/4 c/4c/4c/4 z/4 c/4c/4c/4 z/4 c/4c/4c/4 z/4 d/4d/4d/4 z/4 d/4d/4d/4 | %18
 z/4 !1!c/4c/4c/4 z/4 c/4(3(!1!c/4!4!d/4!1!c/4) z/4 B/4B/4B/4 z/4 B/4B/4B/4 z/4 B/4B/4B/4 z/4 B/4B/4B/4 | %19
 z/4 B/4B/4B/4 z/4 B/4B/4B/4 z/4 B/4B/4B/4 z/4 B/4B/4B/4 z/4 B/4B/4B/4 z/4 B/4B/4B/4 :: %20
[K:A] z/4 e/4e/4e/4 z/4 e/4e/4e/4 z/4 e/4e/4e/4 z/4 e/4e/4e/4 z/4 !2!d/4d/4d/4 z/4 d/4d/4d/4 | %21
 z/4 c/4c/4c/4 z/4 c/4c/4c/4 z/4 c/4c/4c/4 z/4 c/4c/4c/4 z/4 !2!d/4d/4d/4 z/4 d/4d/4d/4 | %22
 z/4 e/4e/4e/4 z/4 e/4e/4e/4 z/4 e/4e/4e/4 z/4 e/4e/4e/4 z/4 e/4e/4e/4 z/4 e/4e/4e/4 | %23
 z/4 e/4e/4e/4 z/4 e/4e/4e/4 z/4 e/4e/4e/4 z/4 e/4e/4e/4 z/4 e/4e/4e/4 z/4 e/4e/4e/4 | %24
 z/4 !1!f/4f/4f/4 z/4 f/4f/4f/4 z/4 f/4f/4f/4 z/4 f/4f/4f/4 z/4 f/4f/4f/4 z/4 f/4f/4f/4 | %25
 z/4 !1!d'/4d'/4d'/4 z/4 d'/4d'/4d'/4 z/4 d'/4d'/4d'/4 z/4 d'/4d'/4d'/4 z/4 f/4f/4f/4 z/4 f/4f/4f/4 | %26
 z/4 f/4f/4f/4 z/4 f/4(3(f/4g/4f/4) z/4 e/4e/4e/4 z/4 e/4e/4e/4 z/4 e/4e/4e/4 z/4 e/4e/4e/4 | %27
 z/4 e/4e/4e/4 z/4 e/4e/4e/4 z/4 e/4e/4e/4 z/4 e/4e/4e/4 z/4 e/4e/4e/4 z/4 e/4e/4e/4 | %28
"^II" z/4 !4!a/4a/4a/4 z/4 a/4a/4a/4 z/4 a/4a/4a/4 z/4 a/4a/4a/4 z/4 a/4a/4a/4 z/4 a/4a/4a/4 | %29
"^IV" z/4 !4!g/4g/4g/4 z/4 g/4g/4g/4 z/4 g/4g/4g/4 z/4 g/4g/4g/4 z/4 ^d/4d/4d/4 z/4 d/4d/4d/4 | %30
"^IV" z/4 !4!f/4f/4f/4 z/4 f/4f/4f/4 z/4 e/4e/4e/4 z/4 e/4e/4e/4 z/4 e/4e/4e/4 z/4 e/4e/4e/4 | %31
 z/4 e/4e/4e/4 z/4 e/4e/4e/4 z/4 e/4e/4e/4 z/4 e/4e/4e/4 z/4 e/4e/4e/4 z/4 e/4e/4e/4 | %32
 z/4 !4!d/4d/4d/4 z/4 d/4d/4d/4 z/4 d/4d/4d/4 z/4 d/4d/4d/4 z/4 d/4d/4d/4 z/4 d/4d/4d/4 | %33
 z/4 !2!c/4c/4c/4 z/4 c/4c/4c/4 z/4 c/4c/4c/4 z/4 c/4c/4c/4 z/4 B/4B/4B/4 z/4 B/4B/4B/4 | %34
"^II" z/4 !2!B/4B/4B/4 z/4 B/4(3(!2!B/4!4!c/4!2!B/4) z/4 A/4A/4A/4 z/4 A/4A/4A/4 z/4 A/4A/4A/4 z/4 A/4A/4A/4 |1 %35
 z/4 A/4A/4A/4 z/4 A/4A/4A/4 z/4 A/4A/4A/4 z/4 B/4B/4B/4 z/4 c/4c/4c/4 z/4 !2!d/4d/4d/4 :|2 %36
 z/4 A/4A/4A/4 z/4 A/4A/4A/4 z/4 A/4A/4A/4 z/4 A/4A/4A/4 z/4 A/4A/4A/4 z/4 A/4A/4A/4 || %37
 z/4 A/4A/4A/4 z/4 A/4A/4A/4 z/4 A/4A/4A/4 z/4 A/4A/4A/4 z/4 A/4A/4A/4 z/4 A/4A/4A/4 | %38
 z/4 B/4B/4B/4 z/4 B/4B/4B/4 z/4 =c/4c/4c/4 z/4 c/4c/4c/4 z/4 d/4d/4d/4 z/4 d/4d/4d/4 | %39
 z/4 e/4e/4e/4 z/4 e/4e/4e/4 z/4 e/4e/4e/4 z/4 e/4e/4e/4 z/4 e/4e/4e/4 z/4 e/4e/4e/4 | %40
 z/4 e/4e/4e/4 z/4 e/4e/4e/4 z/4 e/4e/4e/4 z/4 e/4e/4e/4 z/4 e/4e/4e/4 z/4 e/4e/4e/4 | %41
 z/4 e/4e/4e/4 z/4 e/4e/4e/4 z/4 e/4e/4e/4 z/4 e/4e/4e/4 z/4 e/4e/4e/4 z/4 e/4e/4e/4 | %42
 z/4 d/4d/4d/4 z/4 d/4d/4d/4 z/4 c/4c/4c/4 z/4 c/4c/4c/4 z/4 B/4B/4B/4 z/4 !0!B/4B/4B/4 | %43
 z/4 A/4A/4A/4 z/4 A/4A/4A/4 z/4 A/4A/4A/4 z/4 A/4A/4A/4 z/4 A/4A/4A/4 z/4 A/4A/4A/4 | %44
 z/4 A/4A/4A/4 z/4 A/4A/4A/4 z/4 A/4A/4A/4 z/4 A/4A/4A/4 z/4 A/4A/4A/4 z/4 A/4A/4A/4 | %45
 z/4 A/4A/4A/4 z/4 A/4A/4A/4 z/4 A/4A/4A/4 z/4 A/4A/4A/4 z/4 A/4A/4A/4 z/4 A/4A/4A/4 | %46
 z/4 B/4B/4B/4 z/4 B/4B/4B/4 z/4 =c/4c/4c/4 z/4 c/4c/4c/4 z/4 d/4d/4d/4 z/4 d/4d/4d/4 | %47
 z/4 e/4e/4e/4 z/4 e/4e/4e/4 z/4 e/4e/4e/4 z/4 e/4e/4e/4 z/4 e/4e/4e/4 z/4 e/4e/4e/4 | %48
 z/4 e/4e/4e/4 z/4 e/4e/4e/4 z/4 e/4e/4e/4 z/4 e/4e/4e/4 z/4 e/4e/4e/4 z/4 e/4e/4e/4 | %49
 z/4 g/4g/4g/4 z/4 g/4g/4g/4 z/4 g/4g/4g/4 z/4 g/4g/4g/4 z/4 g/4g/4g/4 z/4 g/4g/4g/4 | %50
 z/4"^II" f/4f/4f/4 z/4 f/4f/4f/4 z/4 e/4e/4e/4 z/4 e/4e/4e/4 z/4 d/4d/4d/4 z/4 d/4d/4d/4 | %51
 z/4 c/4c/4c/4 z/4 c/4c/4c/4 z/4 c/4c/4c/4 z/4 c/4c/4c/4 z/4 c/4c/4c/4 z/4 c/4c/4c/4 | %52
 z/4 c/4c/4c/4 z/4 c/4c/4c/4 z/4 c/4c/4c/4 z/4 c/4c/4c/4 z/4 c/4c/4c/4 z/4 c/4c/4c/4 | %53
 z/4 c/4c/4c/4 z/4 c/4c/4c/4 z/4 c/4c/4c/4 z/4 c/4c/4c/4 z/4 c/4c/4c/4 z/4 c/4c/4c/4 | %54
!p!!ped! z"^Let ring" E Ac !0!ea!ped-up! | !2!!4![ae']6 | [EA]4 x2 |] %57
V:2
|: !0!A,6 | A,6 | A,6 | A,6 | !1!C6 | !1!C6 | !1!C6 | !1!C6 | F6 | F6 | E,6 | E,6 | !0!A,6 | %13
 !3!^C6 | D6 | !1!D6 | !open!D6 | F,6 | E,6 | E,6 ::[K:A] !0!A,6 | !0!A,6 | A,6 | A,6 | A,6 | A,6 | %26
 A,6 | A,6 | F,6 | G,6 | G,6 | C6 | B,6 | E,6 | A,6 |1 A,6 :|2 A,6 || A,6 | A,6 | !0!A,6 | !0!A,6 | %41
 E,6 | E,6 | !0!A,6 | A,6 | A,6 | A,6 | !0!A,6 | !0!A,6 | E,6 | E,6 | A,6 | A,6 | A,6 | A,6 | %55
 !3![A,c]6 | [A,C]4 x2 |] %57
V:3
|: z !1!E !>!cE !>!BE | z !2!E !>!!3!AE !>!!3!BE | z !1!E !>!!3!cE !>!cE | z E !>!cE !>!!3!d!0!G | %4
 z !0!G !>!!3!c!0!G !>!!3!dG | z !0!E !>!!3!cE !>!!3!d!0!G | z !0!G !3!e!0!G !3!eG | %7
 z !0!G !3!e!0!G eG | z !3!c !4!ac !2!e!4!c | z !3!c !2!fc D!2!f | z B eB eB | z !3!d ed ed | %12
 z !3!^c !1!ec ec | z !4!A eA fA | z e !3!d!4!A dA | z !4!A !3!dA dA | z !2!A !0!BA !4!B!2!A | %17
 z ^D !2!AD"Fm7" AD | z !3!E !2!^GE GE | z !3!E !2!^GE GE ::[K:A] z !1!E !2!c!1!E !3!B!1!E | %21
 z !1!E A!1!E !3!B!1!E | z E cE cE | z E cE cE | z !3!F !2!dF dF | z d bd dF | z !2!d !1!cE cE | %27
 z E cE cE | z !3!F Ac AF | z !3!G !2!^B^d BG | z !3!G !4!cG cG | z G cG cG | z !3!=F F!0!D EF | %33
 z !1!E EE E,!0!D | z E EE FG |1 z E !3!C!1!E !1!A!3!B :|2 z E EE EE || z =F FF FF | z =F AF FF | %39
 z E cE cE | z E cE cE | z G GG GG | z F EE E,D | z E E^E FE | z =E EE EE | z =F FF FF | %46
 z =F AF AF | z E cE cE | z E cE cE | z E eE eE | z E cE BE | z !1!E AE F!0!A | z !1!E AE, ^B,C | %53
 z !1!E AE, ^B,C | x6 | x6 | x6 |] %57

